// NOTE: Shader automatically converted from Godot Engine 4.5.1.stable.mono's StandardMaterial3D.

shader_type spatial;
render_mode blend_mix, depth_draw_opaque, cull_back, diffuse_burley, specular_schlick_ggx;
stencil_mode write, compare_always, 1;

void vertex() {
	
}

void fragment() {
	ALPHA = 0.0;
}
